X: 8
T: Up Sligo
R: jig
M: 6/8
L: 1/8
K: Ador
Aee edc | BGB dcB | Aee Aee | dcB c2B |Aee edc | BGB def | g2g ege | dcB A2G :||eaa aga | bab ged | eaa aga | bgf g2g |eaa aga | bab ged | deg ceg | dcB A2A :|


Tune 537	Setting 13482

